; HEADER_BLOCK_START
; generated by OrcaSlicer 2.1.1 on 2026-04-21 at 10:31:40
; total layer number: 100
; filament_density: 1.24
; filament_diameter: 1.75
; max_z_height: 20.00
; HEADER_BLOCK_END

; external perimeters extrusion width = 0.40mm
; perimeters extrusion width = 0.40mm
; infill extrusion width = 0.40mm
; solid infill extrusion width = 0.40mm
; top infill extrusion width = 0.40mm
; first layer extrusion width = 0.40mm

; EXECUTABLE_BLOCK_START
M73 P0 R19
M201 X500 Y500 Z100 E5000
M203 X500 Y500 Z10 E60
M204 P500 R1000 T1500 ; sets acceleration (P, T) and retract acceleration (R), mm/sec^2
M205 X8.00 Y8.00 Z0.40 E5.00 ; sets the jerk limits, mm/sec
;TYPE:Custom
G90 ; use absolute coordinates
M83 ; extruder relative mode
M140 S55 ; set final bed temp
M104 S150 ; set temporary nozzle temp to prevent oozing during homing
G4 S10 ; allow partial nozzle warmup
G28 ; home all axis
G1 Z50 F240
G1 X2 Y10 F3000
M104 S220 ; set final nozzle temp
M190 S55 ; wait for bed temp to stabilize
M109 S220 ; wait for nozzle temp to stabilize
M73 P1 R19
G1 Z0.28 F240
G92 E0
G1 Y140 E10 F1500 ; prime the nozzle
M73 P2 R19
G1 X2.3 F5000
G92 E0
G1 Y10 E10 F1200 ; prime the nozzle
G92 E0
G90
G21
M83 ; use relative distances for extrusion
; filament start gcode
M106 P3 S255


M106 S0
;LAYER_CHANGE
;Z:0.2
;HEIGHT:0.2
;BEFORE_LAYER_CHANGE
;0.2
G92 E0

G1 E-4 F3600
;_SET_FAN_SPEED_CHANGING_LAYER
M204 P500
; printing object 정육면체 id:140719064456384 copy 0
M204 T500
M73 P3 R19
G1 Z.4 F30000
G1 X109.293 Y109.293
G1 Z.4
G1 Z.2
G1 E4 F2400
;TYPE:Inner wall
;WIDTH:0.4
G1 F3000
G1 X90.707 Y109.293 E.55184
G1 X90.707 Y90.707 E.55184
G1 X109.293 Y90.707 E.55184
G1 X109.293 Y109.253 E.55065
G1 X109.65 Y109.65 F30000
;TYPE:Outer wall
G1 F3000
G1 X90.35 Y109.65 E.57304
G1 X90.35 Y90.35 E.57304
G1 X109.65 Y90.35 E.57304
G1 X109.65 Y109.61 E.57185
G1 E-2.8 F3600
;WIPE_START
G1 F3000
G1 X108.65 Y109.612 E-1.2
;WIPE_END
G1 Z.6 F30000
G1 X109.186 Y91.546
G1 Z.6
G1 Z.2
G1 E4 F2400
;TYPE:Bottom surface
;WIDTH:0.404473
G1 F6300
G1 X108.615 Y90.975 E.02426
G1 X108.104 Y90.975 E.01537
G1 X109.025 Y91.896 E.03917
G1 X109.025 Y92.407 E.01537
G1 X107.593 Y90.975 E.06091
G1 X107.081 Y90.975 E.01537
G1 X109.025 Y92.919 E.08265
G1 X109.025 Y93.43 E.01537
G1 X106.57 Y90.975 E.10439
G1 X106.059 Y90.975 E.01537
G1 X109.025 Y93.941 E.12612
G1 X109.025 Y94.453 E.01537
G1 X105.547 Y90.975 E.14786
G1 X105.036 Y90.975 E.01537
G1 X109.025 Y94.964 E.1696
G1 X109.025 Y95.475 E.01537
G1 X104.525 Y90.975 E.19134
G1 X104.013 Y90.975 E.01537
G1 X109.025 Y95.987 E.21308
G1 X109.025 Y96.498 E.01537
G1 X103.502 Y90.975 E.23482
G1 X102.991 Y90.975 E.01537
G1 X109.025 Y97.009 E.25656
G1 X109.025 Y97.521 E.01537
G1 X102.479 Y90.975 E.2783
G1 X101.968 Y90.975 E.01537
G1 X109.025 Y98.032 E.30004
G1 X109.025 Y98.543 E.01537
G1 X101.457 Y90.975 E.32177
G1 X100.945 Y90.975 E.01537
G1 X109.025 Y99.055 E.34351
G1 X109.025 Y99.566 E.01537
G1 X100.434 Y90.975 E.36525
G1 X99.923 Y90.975 E.01537
G1 X109.025 Y100.077 E.38699
G1 X109.025 Y100.588 E.01537
G1 X99.412 Y90.975 E.40873
G1 X98.9 Y90.975 E.01537
G1 X109.025 Y101.1 E.43047
G1 X109.025 Y101.611 E.01537
G1 X98.389 Y90.975 E.45221
G1 X97.878 Y90.975 E.01537
M73 P4 R19
G1 X109.025 Y102.122 E.47395
G1 X109.025 Y102.634 E.01537
G1 X97.366 Y90.975 E.49569
G1 X96.855 Y90.975 E.01537
G1 X109.025 Y103.145 E.51743
G1 X109.025 Y103.656 E.01537
G1 X96.344 Y90.975 E.53916
G1 X95.832 Y90.975 E.01537
G1 X109.025 Y104.168 E.5609
G1 X109.025 Y104.679 E.01537
G1 X95.321 Y90.975 E.58264
G1 X94.81 Y90.975 E.01537
G1 X109.025 Y105.19 E.60438
G1 X109.025 Y105.702 E.01537
G1 X94.298 Y90.975 E.62612
G1 X93.787 Y90.975 E.01537
G1 X109.025 Y106.213 E.64786
G1 X109.025 Y106.724 E.01537
G1 X93.276 Y90.975 E.6696
G1 X92.764 Y90.975 E.01537
G1 X109.025 Y107.236 E.69134
G1 X109.025 Y107.747 E.01537
G1 X92.253 Y90.975 E.71308
G1 X91.742 Y90.975 E.01537
G1 X109.025 Y108.258 E.73481
G1 X109.025 Y108.769 E.01537
G1 X91.231 Y90.975 E.75655
G1 X90.975 Y90.975 E.00768
G1 X90.975 Y91.231 E.00769
G1 X108.769 Y109.025 E.75655
G1 X108.258 Y109.025 E.01537
G1 X90.975 Y91.742 E.73481
G1 X90.975 Y92.253 E.01537
G1 X107.747 Y109.025 E.71307
G1 X107.235 Y109.025 E.01537
G1 X90.975 Y92.765 E.69133
G1 X90.975 Y93.276 E.01537
G1 X106.724 Y109.025 E.66959
G1 X106.213 Y109.025 E.01537
G1 X90.975 Y93.787 E.64786
G1 X90.975 Y94.298 E.01537
G1 X105.702 Y109.025 E.62612
G1 X105.19 Y109.025 E.01537
G1 X90.975 Y94.81 E.60438
G1 X90.975 Y95.321 E.01537
G1 X104.679 Y109.025 E.58264
G1 X104.168 Y109.025 E.01537
G1 X90.975 Y95.832 E.5609
G1 X90.975 Y96.344 E.01537
G1 X103.656 Y109.025 E.53916
G1 X103.145 Y109.025 E.01537
G1 X90.975 Y96.855 E.51742
G1 X90.975 Y97.366 E.01537
M73 P4 R18
G1 X102.634 Y109.025 E.49568
G1 X102.122 Y109.025 E.01537
G1 X90.975 Y97.878 E.47394
G1 X90.975 Y98.389 E.01537
G1 X101.611 Y109.025 E.45221
G1 X101.1 Y109.025 E.01537
G1 X90.975 Y98.9 E.43047
G1 X90.975 Y99.412 E.01537
M73 P5 R18
G1 X100.588 Y109.025 E.40873
G1 X100.077 Y109.025 E.01537
G1 X90.975 Y99.923 E.38699
G1 X90.975 Y100.434 E.01537
G1 X99.566 Y109.025 E.36525
G1 X99.054 Y109.025 E.01537
G1 X90.975 Y100.946 E.34351
G1 X90.975 Y101.457 E.01537
G1 X98.543 Y109.025 E.32177
G1 X98.032 Y109.025 E.01537
G1 X90.975 Y101.968 E.30003
G1 X90.975 Y102.479 E.01537
G1 X97.521 Y109.025 E.27829
G1 X97.009 Y109.025 E.01537
G1 X90.975 Y102.991 E.25655
G1 X90.975 Y103.502 E.01537
G1 X96.498 Y109.025 E.23482
G1 X95.987 Y109.025 E.01537
G1 X90.975 Y104.013 E.21308
G1 X90.975 Y104.525 E.01537
G1 X95.475 Y109.025 E.19134
G1 X94.964 Y109.025 E.01537
G1 X90.975 Y105.036 E.1696
G1 X90.975 Y105.547 E.01537
G1 X94.453 Y109.025 E.14786
G1 X93.941 Y109.025 E.01537
G1 X90.975 Y106.059 E.12612
G1 X90.975 Y106.57 E.01537
G1 X93.43 Y109.025 E.10438
G1 X92.919 Y109.025 E.01537
G1 X90.975 Y107.081 E.08264
G1 X90.975 Y107.593 E.01537
G1 X92.407 Y109.025 E.0609
G1 X91.896 Y109.025 E.01537
G1 X90.975 Y108.104 E.03917
G1 X90.975 Y108.615 E.01537
G1 X91.545 Y109.186 E.02426
; stop printing object 정육면체 id:140719064456384 copy 0
M106 S255
;LAYER_CHANGE
;Z:0.4
;HEIGHT:0.2
;BEFORE_LAYER_CHANGE
;0.4
G92 E0

G1 E-3.42857 F3600
;WIPE_START
G1 F6300
G1 X90.975 Y108.615 E-.46109
G1 X90.975 Y108.422 E-.11034
;WIPE_END
;_SET_FAN_SPEED_CHANGING_LAYER
; printing object 정육면체 id:140719064456384 copy 0
M204 T1500
G1 Z.6 F30000
G1 X109.443 Y109.443 Z.6
G1 Z.4
G1 E4 F2400
;TYPE:Inner wall
;WIDTH:0.4
G1 F10081.784
G1 X90.557 Y109.443 E.56075
G1 X90.557 Y90.557 E.56075
G1 X109.443 Y90.557 E.56075
G1 X109.443 Y109.403 E.55956
G1 X109.8 Y109.8 F30000
;TYPE:Outer wall
G1 F10081.784
G1 X90.2 Y109.8 E.58195
G1 X90.2 Y90.2 E.58195
G1 X109.8 Y90.2 E.58195
G1 X109.8 Y109.76 E.58076
G1 E-3.64292 F3600
;WIPE_START
G1 F10081.784
G1 X108.8 Y109.762 E-.35708
;WIPE_END
G1 Z.8 F30000
G1 X108.473 Y109.3
G1 Z.8
G1 Z.4
G1 E4 F2400
;TYPE:Internal solid infill
;WIDTH:0.401005
G1 F10053.478
G1 X109.139 Y108.633 E.02807
G1 X109.139 Y108.127 E.01508
G1 X108.127 Y109.139 E.04263
G1 X107.621 Y109.139 E.01508
G1 X109.139 Y107.621 E.06395
G1 X109.139 Y107.114 E.01508
G1 X107.114 Y109.139 E.08528
G1 X106.608 Y109.139 E.01508
G1 X109.139 Y106.608 E.1066
G1 X109.139 Y106.101 E.01508
G1 X106.101 Y109.139 E.12793
G1 X105.595 Y109.139 E.01508
G1 X109.139 Y105.595 E.14925
G1 X109.139 Y105.089 E.01508
G1 X105.089 Y109.139 E.17057
G1 X104.582 Y109.139 E.01508
G1 X109.139 Y104.582 E.1919
G1 X109.139 Y104.076 E.01508
G1 X104.076 Y109.139 E.21322
G1 X103.569 Y109.139 E.01508
G1 X109.139 Y103.569 E.23454
G1 X109.139 Y103.063 E.01508
G1 X103.063 Y109.139 E.25587
G1 X102.557 Y109.139 E.01508
G1 X109.139 Y102.557 E.27719
G1 X109.139 Y102.05 E.01508
G1 X102.05 Y109.139 E.29852
G1 X101.544 Y109.139 E.01508
G1 X109.139 Y101.544 E.31984
G1 X109.139 Y101.037 E.01508
G1 X101.037 Y109.139 E.34116
G1 X100.531 Y109.139 E.01508
M73 P6 R18
G1 X109.139 Y100.531 E.36249
G1 X109.139 Y100.024 E.01508
G1 X100.024 Y109.139 E.38381
G1 X99.518 Y109.139 E.01508
G1 X109.139 Y99.518 E.40514
G1 X109.139 Y99.012 E.01508
G1 X99.012 Y109.139 E.42646
G1 X98.505 Y109.139 E.01508
G1 X109.139 Y98.505 E.44778
G1 X109.139 Y97.999 E.01508
G1 X97.999 Y109.139 E.46911
G1 X97.492 Y109.139 E.01508
G1 X109.139 Y97.492 E.49043
G1 X109.139 Y96.986 E.01508
G1 X96.986 Y109.139 E.51176
G1 X96.48 Y109.139 E.01508
G1 X109.139 Y96.48 E.53308
G1 X109.139 Y95.973 E.01508
G1 X95.973 Y109.139 E.5544
G1 X95.467 Y109.139 E.01508
G1 X109.139 Y95.467 E.57573
G1 X109.139 Y94.96 E.01508
G1 X94.96 Y109.139 E.59705
G1 X94.454 Y109.139 E.01508
G1 X109.139 Y94.454 E.61837
G1 X109.139 Y93.948 E.01508
G1 X93.948 Y109.139 E.6397
G1 X93.441 Y109.139 E.01508
G1 X109.139 Y93.441 E.66102
G1 X109.139 Y92.935 E.01508
G1 X92.935 Y109.139 E.68235
G1 X92.428 Y109.139 E.01508
G1 X109.139 Y92.428 E.70367
G1 X109.139 Y91.922 E.01508
G1 X91.922 Y109.139 E.72499
G1 X91.416 Y109.139 E.01508
G1 X109.139 Y91.416 E.74632
G1 X109.139 Y90.909 E.01508
G1 X90.909 Y109.139 E.76764
G1 X90.861 Y109.139 E.00144
G1 X90.861 Y108.682 E.01363
G1 X108.682 Y90.861 E.7504
G1 X108.175 Y90.861 E.01508
G1 X90.861 Y108.175 E.72908
G1 X90.861 Y107.669 E.01508
G1 X107.669 Y90.861 E.70776
G1 X107.162 Y90.861 E.01508
G1 X90.861 Y107.162 E.68643
G1 X90.861 Y106.656 E.01508
G1 X106.656 Y90.861 E.66511
G1 X106.149 Y90.861 E.01508
G1 X90.861 Y106.149 E.64379
G1 X90.861 Y105.643 E.01508
G1 X105.643 Y90.861 E.62246
G1 X105.137 Y90.861 E.01508
G1 X90.861 Y105.137 E.60114
G1 X90.861 Y104.63 E.01508
G1 X104.63 Y90.861 E.57981
G1 X104.124 Y90.861 E.01508
G1 X90.861 Y104.124 E.55849
G1 X90.861 Y103.617 E.01508
M73 P7 R18
G1 X103.617 Y90.861 E.53717
G1 X103.111 Y90.861 E.01508
G1 X90.861 Y103.111 E.51584
G1 X90.861 Y102.605 E.01508
G1 X102.605 Y90.861 E.49452
G1 X102.098 Y90.861 E.01508
G1 X90.861 Y102.098 E.47319
G1 X90.861 Y101.592 E.01508
G1 X101.592 Y90.861 E.45187
G1 X101.085 Y90.861 E.01508
G1 X90.861 Y101.085 E.43055
G1 X90.861 Y100.579 E.01508
G1 X100.579 Y90.861 E.40922
G1 X100.073 Y90.861 E.01508
G1 X90.861 Y100.073 E.3879
G1 X90.861 Y99.566 E.01508
G1 X99.566 Y90.861 E.36657
G1 X99.06 Y90.861 E.01508
G1 X90.861 Y99.06 E.34525
G1 X90.861 Y98.553 E.01508
G1 X98.553 Y90.861 E.32393
G1 X98.047 Y90.861 E.01508
G1 X90.861 Y98.047 E.3026
G1 X90.861 Y97.541 E.01508
G1 X97.541 Y90.861 E.28128
G1 X97.034 Y90.861 E.01508
G1 X90.861 Y97.034 E.25996
G1 X90.861 Y96.528 E.01508
G1 X96.528 Y90.861 E.23863
G1 X96.021 Y90.861 E.01508
G1 X90.861 Y96.021 E.21731
G1 X90.861 Y95.515 E.01508
G1 X95.515 Y90.861 E.19598
G1 X95.008 Y90.861 E.01508
G1 X90.861 Y95.008 E.17466
G1 X90.861 Y94.502 E.01508
G1 X94.502 Y90.861 E.15334
G1 X93.996 Y90.861 E.01508
G1 X90.861 Y93.996 E.13201
G1 X90.861 Y93.489 E.01508
G1 X93.489 Y90.861 E.11069
G1 X92.983 Y90.861 E.01508
G1 X90.861 Y92.983 E.08936
G1 X90.861 Y92.476 E.01508
G1 X92.476 Y90.861 E.06804
G1 X91.97 Y90.861 E.01508
G1 X90.861 Y91.97 E.04672
G1 X90.861 Y91.464 E.01508
G1 X91.624 Y90.7 E.03216
G1 X90.95 Y90.885 F30000
;WIDTH:0.423892
G1 F9449.513
G1 X90.878 Y90.926 E.00261
G1 X90.954 Y90.961 E.00262
G1 X109.124 Y109.066 F30000
;WIDTH:0.38292
G1 F10588.235
G1 X109.06 Y109.102 E.00208
G1 X109.125 Y109.137 E.00208
; stop printing object 정육면체 id:140719064456384 copy 0
;LAYER_CHANGE
;Z:0.6
;HEIGHT:0.2
;BEFORE_LAYER_CHANGE
;0.6
G92 E0

G1 E-3.94993 F3600
;WIPE_START
G1 F10588.235
G1 X109.06 Y109.102 E-.02504
G1 X109.124 Y109.066 E-.02503
;WIPE_END
;_SET_FAN_SPEED_CHANGING_LAYER
; printing object 정육면체 id:140719064456384 copy 0
G1 Z.8 F30000
G1 X109.443 Y109.443 Z.8
G1 Z.6
G1 E4 F2400
;TYPE:Inner wall
;WIDTH:0.4
G1 F10081.784
G1 X90.557 Y109.443 E.56075
G1 X90.557 Y90.557 E.56075
G1 X109.443 Y90.557 E.56075
G1 X109.443 Y109.403 E.55956
G1 X109.8 Y109.8 F30000
;TYPE:Outer wall
G1 F10081.784
G1 X90.2 Y109.8 E.58195
G1 X90.2 Y90.2 E.58195
G1 X109.8 Y90.2 E.58195
G1 X109.8 Y109.76 E.58076
G1 E-3.64292 F3600
;WIPE_START
G1 F10081.784
G1 X108.8 Y109.762 E-.35708
;WIPE_END
G1 Z1 F30000
G1 X90.95 Y109.033
G1 Z1
G1 Z.6
G1 E4 F2400
;TYPE:Internal solid infill
;WIDTH:0.42389
G1 F9449.563
G1 X90.878 Y109.074 E.00261
G1 X90.954 Y109.109 E.00262
G1 X109.3 Y91.527 F30000
;WIDTH:0.401005
G1 F10053.478
G1 X108.633 Y90.861 E.02807
G1 X108.127 Y90.861 E.01508
G1 X109.139 Y91.873 E.04263
G1 X109.139 Y92.379 E.01508
G1 X107.621 Y90.861 E.06395
G1 X107.114 Y90.861 E.01508
G1 X109.139 Y92.886 E.08528
G1 X109.139 Y93.392 E.01508
M73 P8 R18
G1 X106.608 Y90.861 E.1066
G1 X106.101 Y90.861 E.01508
G1 X109.139 Y93.899 E.12793
G1 X109.139 Y94.405 E.01508
G1 X105.595 Y90.861 E.14925
G1 X105.089 Y90.861 E.01508
G1 X109.139 Y94.911 E.17057
G1 X109.139 Y95.418 E.01508
G1 X104.582 Y90.861 E.1919
G1 X104.076 Y90.861 E.01508
G1 X109.139 Y95.924 E.21322
G1 X109.139 Y96.431 E.01508
G1 X103.569 Y90.861 E.23454
G1 X103.063 Y90.861 E.01508
G1 X109.139 Y96.937 E.25587
G1 X109.139 Y97.443 E.01508
G1 X102.557 Y90.861 E.27719
G1 X102.05 Y90.861 E.01508
G1 X109.139 Y97.95 E.29852
G1 X109.139 Y98.456 E.01508
G1 X101.544 Y90.861 E.31984
G1 X101.037 Y90.861 E.01508
G1 X109.139 Y98.963 E.34116
G1 X109.139 Y99.469 E.01508
G1 X100.531 Y90.861 E.36249
G1 X100.024 Y90.861 E.01508
G1 X109.139 Y99.976 E.38381
G1 X109.139 Y100.482 E.01508
G1 X99.518 Y90.861 E.40514
G1 X99.012 Y90.861 E.01508
G1 X109.139 Y100.988 E.42646
G1 X109.139 Y101.495 E.01508
G1 X98.505 Y90.861 E.44778
G1 X97.999 Y90.861 E.01508
G1 X109.139 Y102.001 E.46911
G1 X109.139 Y102.508 E.01508
G1 X97.492 Y90.861 E.49043
G1 X96.986 Y90.861 E.01508
G1 X109.139 Y103.014 E.51176
G1 X109.139 Y103.52 E.01508
G1 X96.48 Y90.861 E.53308
G1 X95.973 Y90.861 E.01508
G1 X109.139 Y104.027 E.5544
G1 X109.139 Y104.533 E.01508
G1 X95.467 Y90.861 E.57573
G1 X94.96 Y90.861 E.01508
G1 X109.139 Y105.04 E.59705
G1 X109.139 Y105.546 E.01508
G1 X94.454 Y90.861 E.61837
G1 X93.948 Y90.861 E.01508
G1 X109.139 Y106.052 E.6397
G1 X109.139 Y106.559 E.01508
G1 X93.441 Y90.861 E.66102
G1 X92.935 Y90.861 E.01508
G1 X109.139 Y107.065 E.68235
G1 X109.139 Y107.572 E.01508
G1 X92.428 Y90.861 E.70367
G1 X91.922 Y90.861 E.01508
G1 X109.139 Y108.078 E.72499
G1 X109.139 Y108.584 E.01508
G1 X91.416 Y90.861 E.74632
G1 X90.909 Y90.861 E.01508
G1 X109.139 Y109.091 E.76764
G1 X109.139 Y109.139 E.00144
G1 X108.682 Y109.139 E.01363
G1 X90.861 Y91.318 E.7504
G1 X90.861 Y91.825 E.01508
G1 X108.175 Y109.139 E.72908
G1 X107.669 Y109.139 E.01508
G1 X90.861 Y92.331 E.70776
G1 X90.861 Y92.838 E.01508
M73 P9 R18
G1 X107.162 Y109.139 E.68643
G1 X106.656 Y109.139 E.01508
G1 X90.861 Y93.344 E.66511
G1 X90.861 Y93.851 E.01508
G1 X106.149 Y109.139 E.64379
G1 X105.643 Y109.139 E.01508
G1 X90.861 Y94.357 E.62246
G1 X90.861 Y94.863 E.01508
G1 X105.137 Y109.139 E.60114
G1 X104.63 Y109.139 E.01508
G1 X90.861 Y95.37 E.57981
G1 X90.861 Y95.876 E.01508
G1 X104.124 Y109.139 E.55849
G1 X103.617 Y109.139 E.01508
G1 X90.861 Y96.383 E.53717
G1 X90.861 Y96.889 E.01508
G1 X103.111 Y109.139 E.51584
G1 X102.605 Y109.139 E.01508
G1 X90.861 Y97.395 E.49452
G1 X90.861 Y97.902 E.01508
G1 X102.098 Y109.139 E.47319
G1 X101.592 Y109.139 E.01508
G1 X90.861 Y98.408 E.45187
G1 X90.861 Y98.915 E.01508
G1 X101.085 Y109.139 E.43055
G1 X100.579 Y109.139 E.01508
G1 X90.861 Y99.421 E.40922
G1 X90.861 Y99.927 E.01508
G1 X100.073 Y109.139 E.3879
G1 X99.566 Y109.139 E.01508
G1 X90.861 Y100.434 E.36657
G1 X90.861 Y100.94 E.01508
G1 X99.06 Y109.139 E.34525
G1 X98.553 Y109.139 E.01508
G1 X90.861 Y101.447 E.32393
G1 X90.861 Y101.953 E.01508
G1 X98.047 Y109.139 E.3026
G1 X97.541 Y109.139 E.01508
G1 X90.861 Y102.459 E.28128
G1 X90.861 Y102.966 E.01508
G1 X97.034 Y109.139 E.25996
G1 X96.528 Y109.139 E.01508
G1 X90.861 Y103.472 E.23863
G1 X90.861 Y103.979 E.01508
G1 X96.021 Y109.139 E.21731
G1 X95.515 Y109.139 E.01508
G1 X90.861 Y104.485 E.19598
G1 X90.861 Y104.992 E.01508
G1 X95.008 Y109.139 E.17466
G1 X94.502 Y109.139 E.01508
G1 X90.861 Y105.498 E.15334
G1 X90.861 Y106.004 E.01508
G1 X93.996 Y109.139 E.13201
G1 X93.489 Y109.139 E.01508
G1 X90.861 Y106.511 E.11069
G1 X90.861 Y107.017 E.01508
G1 X92.983 Y109.139 E.08936
G1 X92.476 Y109.139 E.01508
G1 X90.861 Y107.524 E.06804
G1 X90.861 Y108.03 E.01508
G1 X91.97 Y109.139 E.04672
G1 X91.464 Y109.139 E.01508
