; HEADER_BLOCK_START
; generated by OrcaSlicer 2.1.1 on 2026-04-21 at 10:41:31
; total layer number: 240
; filament_density: 1.24
; filament_diameter: 1.75
; max_z_height: 48.00
; HEADER_BLOCK_END

; THUMBNAIL_BLOCK_START

;
; THUMBNAIL_BLOCK_END

; THUMBNAIL_BLOCK_START

;
; THUMBNAIL_BLOCK_END

; external perimeters extrusion width = 0.40mm
; perimeters extrusion width = 0.40mm
; infill extrusion width = 0.40mm
; solid infill extrusion width = 0.40mm
; top infill extrusion width = 0.40mm
; first layer extrusion width = 0.40mm

; EXECUTABLE_BLOCK_START
M73 P0 R85
M201 X500 Y500 Z100 E5000
M203 X500 Y500 Z10 E60
M204 P500 R1000 T1500 ; sets acceleration (P, T) and retract acceleration (R), mm/sec^2
M205 X8.00 Y8.00 Z0.40 E5.00 ; sets the jerk limits, mm/sec
;TYPE:Custom
G90 ; use absolute coordinates
M83 ; extruder relative mode
M140 S55 ; set final bed temp
M104 S150 ; set temporary nozzle temp to prevent oozing during homing
G4 S10 ; allow partial nozzle warmup
G28 ; home all axis
G1 Z50 F240
G1 X2 Y10 F3000
M104 S220 ; set final nozzle temp
M190 S55 ; wait for bed temp to stabilize
M109 S220 ; wait for nozzle temp to stabilize
G1 Z0.28 F240
G92 E0
G1 Y140 E10 F1500 ; prime the nozzle
G1 X2.3 F5000
G92 E0
G1 Y10 E10 F1200 ; prime the nozzle
G92 E0
G90
G21
M83 ; use relative distances for extrusion
; filament start gcode
M106 P3 S255


M106 S0
;LAYER_CHANGE
;Z:0.2
;HEIGHT:0.2
;BEFORE_LAYER_CHANGE
;0.2
G92 E0

G1 E-4 F3600
;_SET_FAN_SPEED_CHANGING_LAYER
M204 P500
; printing object 3DBenchy id:140719064456384 copy 0
M204 T500
G1 Z.4 F30000
G1 X100.182 Y99.232
G1 Z.4
M73 P0 R84
G1 Z.2
G1 E4 F2400
;TYPE:Outer wall
;WIDTH:0.4
G1 F3000
G1 X100.372 Y99.024 E.00836
G3 X101.108 Y98.146 I1.03 J.115 E.03605
G3 X101.902 Y99.294 I.086 J.79 E.05066
G2 X101.163 Y100.572 I98.836 J57.997 E.04383
G1 X101.151 Y100.608 E.00112
G2 X101.25 Y101.005 I.395 J.113 E.01273
G3 X101.937 Y102.164 I-63.619 J38.536 E.04001
G3 X101.771 Y103.266 I-.808 J.441 E.03554
G3 X100.655 Y103.192 I-.518 J-.63 E.03658
G3 X100.463 Y102.885 I1.102 J-.902 E.01076
G1 X100.281 Y102.353 E.0167
G1 X100.093 Y102.174 E.0077
G2 X99.913 Y102.431 I.313 J.411 E.00944
G1 X99.946 Y102.605 E.00528
G2 X99.709 Y103.007 I.999 J.859 E.01392
G3 X99.133 Y103.422 I-.818 J-.527 E.02158
G3 X98.354 Y102.869 I-.068 J-.729 E.0309
G3 X98.552 Y101.914 I2.101 J-.062 E.02921
G3 X98.961 Y101.164 I6.608 J3.115 E.02537
G2 X99.242 Y100.769 I-12.274 J-9.039 E.01443
G3 X98.431 Y99.366 I21.869 J-13.583 E.04811
G3 X98.367 Y98.613 I.919 J-.458 E.023
G3 X99.777 Y98.52 I.73 J.326 E.05148
G3 X99.962 Y98.938 I-.588 J.509 E.01379
G1 X99.982 Y99.021 E.00251
G1 X100.155 Y99.203 E.00746
G1 E-2.8 F3600
;WIPE_START
G1 F3000
G1 X100.372 Y99.024 E-.33771
G1 X100.432 Y98.762 E-.32295
G1 X100.493 Y98.641 E-.16252
G1 X100.674 Y98.411 E-.35085
G1 X100.69 Y98.396 E-.02598
;WIPE_END
G1 Z.6 F30000
G1 X104.616 Y100.615 Z.6
G1 Z.2
G1 E4 F2400
G1 F3000
G1 X104.75 Y100.136 E.01476
G3 X105.14 Y98.684 I4.321 J.382 E.04487
G3 X105.722 Y98.154 I1.011 J.525 E.02384
G3 X106.442 Y98.457 I.119 J.727 E.02446
G3 X106.606 Y98.996 I-.682 J.501 E.01707
G3 X106.398 Y99.835 I-1.633 J.04 E.02596
G3 X104.618 Y104.712 I-74.034 J-24.253 E.15419
G3 X102.668 Y105.959 I-1.794 J-.658 E.0738
G3 X101.943 Y105.157 I.183 J-.894 E.03436
G3 X102.535 Y104.337 I.689 J-.126 E.03352
G2 X103.068 Y104.121 I-.109 J-1.036 E.01731
G2 X103.315 Y103.683 I-.946 J-.822 E.01505
G3 X103.684 Y102.804 I20.457 J8.084 E.02831
G2 X103.663 Y102.551 I-.311 J-.101 E.00772
G3 X103.223 Y101.463 I12.959 J-5.871 E.03486
G2 X102.458 Y99.481 I-80.897 J30.095 E.06309
G3 X102.436 Y98.533 I1.375 J-.505 E.02866
G3 X102.889 Y98.157 I.636 J.305 E.01802
G3 X104.066 Y98.912 I.226 J.944 E.04636
G2 X104.289 Y99.774 I10.279 J-2.202 E.02644
G2 X104.5 Y100.58 I3.578 J-.504 E.02481
G1 X104.564 Y100.542 E.00221
G1 X104.593 Y100.582 E.00146
G1 E-2.8 F3600
;WIPE_START
G1 F3000
G1 X104.75 Y100.136 E-.56771
G1 X104.775 Y99.873 E-.31751
G1 X104.836 Y99.618 E-.31479
;WIPE_END
G1 Z.6 F30000
G1 X109.125 Y101.78 Z.6
G1 Z.2
G1 E4 F2400
G1 F3000
G3 X109.749 Y101.741 I1.002 J10.98 E.01858
G3 X110.537 Y101.955 I.055 J1.352 E.02462
G3 X110.722 Y102.761 I-.383 J.512 E.02669
G3 X110.255 Y103.243 I-.593 J-.107 E.02114
G3 X109.364 Y103.42 I-.887 J-2.134 E.02713
G3 X108.122 Y103.428 I-.99 J-60.226 E.03688
G3 X107.383 Y103.406 I-.308 J-2.123 E.02206
G3 X106.846 Y102.562 I.361 J-.822 E.03152
G3 X107.185 Y101.632 I1.506 J.022 E.02994
G1 X107.862 Y100.713 E.03388
G3 X108.511 Y100.04 I3.058 J2.299 E.02785
G1 X108.666 Y99.711 E.01078
G1 X108.38 Y99.678 E.00856
G3 X107.317 Y99.663 I-.513 J-1.418 E.03227
G3 X106.963 Y99.014 I.285 J-.577 E.02339
G3 X107.09 Y98.444 I.793 J-.123 E.01777
G3 X107.896 Y98.134 I.763 J.784 E.02636
G3 X110.058 Y98.136 I.67 J612.266 E.06418
G3 X110.803 Y98.899 I-.031 J.776 E.03491
G3 X110.511 Y99.857 I-1.428 J.088 E.0304
G3 X109.441 Y101.33 I-33.527 J-23.23 E.05406
G1 X109.249 Y101.495 E.00751
G3 X109.147 Y101.747 I-.742 J-.155 E.00811
G1 E-2.8 F3600
;WIPE_START
G1 F3000
G1 X109.749 Y101.741 E-.72283
G1 X110.143 Y101.791 E-.47717
;WIPE_END
G1 Z.6 F30000
G1 X112.386 Y99.844 Z.6
G1 Z.2
G1 E4 F2400
;TYPE:Inner wall
G1 F3000
G1 X112.403 Y99.919 E.00228
G3 X112.322 Y100.315 I-.618 J.081 E.01222
G3 X111.124 Y102.115 I-18.224 J-10.836 E.06423
G1 X110.913 Y101.814 E.01092
G2 X109.846 Y101.39 I-1.043 J1.071 E.03498
G2 X110.948 Y99.831 I-19.99 J-15.287 E.05669
G2 X110.855 Y98.128 I-1.276 J-.785 E.05389
G2 X109.863 Y97.773 I-.907 J.97 E.03219
G3 X107.877 Y97.778 I-1.146 J-60.345 E.05897
G2 X106.754 Y98.269 I-.019 J1.486 E.03751
G2 X105.632 Y97.805 I-.92 J.638 E.03808
G2 X104.72 Y98.73 I.53 J1.434 E.03984
G2 X104.614 Y99.011 I3.06 J1.318 E.00893
G1 X104.453 Y99.002 E.00477
G2 X103.028 Y97.773 I-1.369 J.147 E.06153
G2 X102.145 Y98.276 I.1 J1.202 E.03111
G2 X100.795 Y97.874 I-.918 J.612 E.0454
G2 X100.278 Y98.33 I.788 J1.413 E.02063
G1 X100.174 Y98.474 E.00527
G2 X99.291 Y97.785 I-1.143 J.555 E.03443
G2 X97.97 Y98.708 I-.164 J1.171 E.05262
G2 X98.216 Y99.737 I1.685 J.14 E.03196
G2 X98.817 Y100.757 I17.289 J-9.498 E.03513
G2 X98.298 Y101.631 I3.725 J2.8 E.03025
G2 X96.917 Y100.673 I-1.529 J.73 E.05224
G2 X96.226 Y100.791 I.004 J2.11 E.0209
G2 X95.733 Y97.644 I-4.208 J-.953 E.09688
G2 X93.876 Y96.43 I-2.241 J1.401 E.06796
G2 X92.165 Y96.341 I-1.382 J10.095 E.05094
G2 X91.086 Y96.444 I-.293 J2.627 E.03241
G2 X90.389 Y97.622 I.409 J1.037 E.04375
G3 X90.417 Y98.513 I-4.356 J.585 E.02652
G2 X90.417 Y100.311 I202.893 J.94 E.05337
G1 X90.24 Y100.342 E.00534
G2 X89.874 Y99.647 I-2.194 J.71 E.02343
G1 X89.63 Y99.481 E.00877
G1 X89.834 Y99.343 E.00733
G1 X90.02 Y99.041 E.01052
G3 X90.153 Y98.504 I9.585 J2.08 E.01645
G2 X89.892 Y97.126 I-2.021 J-.331 E.04249
G2 X88.182 Y96.184 I-1.825 J1.289 E.05999
G2 X86.413 Y96.445 I-.395 J3.453 E.05369
G2 X85.756 Y96.946 I1.081 J2.101 E.02467
G2 X84.627 Y96.334 I-1.015 J.526 E.0405
G3 X82.227 Y96.338 I-1.334 J-75.758 E.07126
G3 X81.02 Y96.308 I-.459 J-5.915 E.0359
G2 X79.762 Y97.096 I-.138 J1.178 E.04762
G2 X77.608 Y96.166 I-2.03 J1.742 E.07212
G2 X74.983 Y97.51 I-.086 J3.067 E.09133
G1 X74.834 Y97.462 E.00466
G1 X74.835 Y95.144 E.06884
G3 X75.832 Y94.054 I1.02 J-.068 E.04901
G1 X99.201 Y92.634 E.69513
G3 X100.548 Y92.616 I.902 J17.461 E.04001
G3 X112.375 Y99.8 I-.485 J14.127 E.42933
G1 X112.376 Y99.806 E.00018
G1 E-2.8 F3600
;WIPE_START
G1 F3000
G1 X112.403 Y99.919 E-.1401
G1 X112.408 Y100.051 E-.15877
G1 X112.381 Y100.181 E-.15934
G1 X112.322 Y100.315 E-.17552
G1 X112.075 Y100.718 E-.56627
;WIPE_END
G1 Z.6 F30000
G1 X97.742 Y103.26 Z.6
G1 Z.2
G1 E4 F2400
;TYPE:Outer wall
G1 F3000
G3 X95.536 Y102.789 I-.979 J-.815 E.08226
G3 X95.575 Y102.235 I.942 J-.213 E.01671
G3 X95.974 Y101.454 I1.321 J.182 E.02655
G3 X96.749 Y101.035 I.821 J.593 E.02707
G3 X98.016 Y102.436 I.09 J1.192 E.06463
G3 X97.765 Y103.227 I-1.456 J-.025 E.025
G1 E-2.8 F3600
;WIPE_START
G1 F3000
G1 X97.481 Y103.501 E-.4736
G1 X97.265 Y103.617 E-.29418
G1 X97.152 Y103.656 E-.14355
G1 X96.914 Y103.695 E-.28866
;WIPE_END
G1 Z.6 F30000
G1 X90.804 Y97.156 Z.6
G1 Z.2
G1 E4 F2400
G1 F3000
G3 X91.407 Y96.719 I.737 J.381 E.02295
G3 X91.726 Y96.684 I.312 J1.389 E.00954
G3 X93.347 Y96.721 I-1.513 J102.028 E.04816
G3 X94.898 Y97.243 I-.082 J2.811 E.04929
G3 X95.909 Y99.128 I-1.911 J2.239 E.06502
G3 X95.879 Y100.705 I-4.024 J.712 E.04711
G3 X95.635 Y101.275 I-1.83 J-.447 E.0185
G3 X95.243 Y102.06 I-3.072 J-1.044 E.02614
G3 X93.941 Y103.116 I-1.648 J-.702 E.05178
G3 X92.241 Y103.223 I-1.249 J-6.29 E.05073
G2 X91.505 Y103.267 I2.182 J42.4 E.0219
G3 X90.811 Y102.661 I.033 J-.738 E.02955
G3 X90.762 Y102.262 I1.96 J-.442 E.01195
G2 X90.773 Y97.858 I-200.701 J-2.671 E.13077
G3 X90.793 Y97.195 I1.49 J-.285 E.01986
G1 E-2.8 F3600
;WIPE_START
G1 F3000
G1 X90.891 Y97.013 E-.24819
G1 X91.079 Y96.845 E-.30212
G1 X91.225 Y96.774 E-.19481
G1 X91.407 Y96.719 E-.22776
G1 X91.595 Y96.698 E-.22712
;WIPE_END
G1 Z.6 F30000
G1 X88.983 Y99.512 Z.6
G1 Z.2
G1 E4 F2400
G1 F3000
G3 X89.441 Y99.785 I-.406 J1.207 E.01596
G3 X89.705 Y100.014 I-.207 J.504 E.01056
G3 X90.036 Y101.551 I-2.111 J1.259 E.04752
G3 X87.864 Y103.405 I-2.155 J-.326 E.09245
G3 X86.295 Y103.03 I-.225 J-2.524 E.04873
G3 X85.968 Y101.713 I.608 J-.85 E.04385
G3 X86.994 Y101.368 I.753 J.543 E.03429
G3 X87.672 Y101.772 I-.615 J1.8 E.02361
G2 X88.087 Y101.711 I.167 J-.304 E.01339
G2 X88.14 Y100.921 I-.365 J-.421 E.02615
G2 X87.524 Y100.528 I-.799 J.574 E.02225
G3 X86.803 Y100.32 I.124 J-1.786 E.02243
G3 X86.572 Y99.459 I.498 J-.595 E.02821
M73 P1 R84
G3 X87.342 Y98.802 I.848 J.216 E.03201
G2 X87.769 Y98.707 I-.029 J-1.136 E.01309
G2 X87.886 Y98.172 I-.122 J-.307 E.01916
G1 X87.84 Y98.145 E.00158
G2 X87.429 Y98.217 I-.122 J.515 E.01274
G3 X86.85 Y98.548 I-1.475 J-1.909 E.01986
G3 X86.06 Y98.235 I-.174 J-.715 E.02692
G3 X86.292 Y96.931 I.674 J-.553 E.04467
G3 X87.609 Y96.524 I1.355 J2.048 E.04149
G3 X88.96 Y96.76 I.178 J2.961 E.04112
G3 X89.813 Y98.188 I-.64 J1.35 E.05235
G3 X89.732 Y98.703 I-1.311 J.058 E.01559
G3 X89.438 Y99.18 I-.579 J-.028 E.01734
G3 X89.018 Y99.495 I-1.085 J-1.008 E.01568
G1 E-2.8 F3600
;WIPE_START
G1 F3000
G1 X89.228 Y99.619 E-.29255
G1 X89.441 Y99.785 E-.32412
G1 X89.625 Y99.909 E-.26648
G1 X89.705 Y100.014 E-.15786
G1 X89.762 Y100.134 E-.159
;WIPE_END
G1 Z.6 F30000
G1 X83.94 Y99.901 Z.6
G1 Z.2
G1 E4 F2400
;TYPE:Inner wall
G1 F3000
G1 X83.941 Y98.705 E.03549
G2 X85.109 Y98.615 I.308 J-3.607 E.03494
G2 X85.636 Y98.241 I-.367 J-1.078 E.01947
G1 X85.774 Y98.45 E.00744
G2 X86.426 Y98.915 I1.106 J-.863 E.02411
G2 X86.225 Y100.097 I1.241 J.82 E.03666
G2 X87.043 Y100.808 I1.013 J-.34 E.03373
G1 X87.009 Y100.997 E.00571
G2 X85.743 Y101.414 I-.265 J1.326 E.0414
G2 X86.084 Y103.318 I1.116 J.783 E.06385
G2 X87.877 Y103.762 I1.554 J-2.434 E.05584
G2 X90.233 Y102.16 I.017 J-2.508 E.08996
G1 X90.403 Y102.191 E.00512
G2 X90.823 Y103.366 I1.531 J.115 E.03815
G2 X91.711 Y103.619 I.732 J-.883 E.02823
G3 X92.64 Y103.591 I.597 J4.402 E.02764
G2 X94.296 Y103.385 I.204 J-5.116 E.04976
G2 X95.177 Y102.835 I-.894 J-2.414 E.03105
G2 X98.153 Y103.31 I1.59 J-.4 E.11353
G2 X99.168 Y103.781 I.958 J-.736 E.03454
G2 X100.114 Y102.991 I-.249 J-1.259 E.03816
G2 X100.677 Y103.675 I1.467 J-.634 E.02665
G2 X102.353 Y103.001 I.557 J-1.036 E.06115
G2 X102.159 Y101.82 I-1.478 J-.364 E.03654
G3 X101.492 Y100.712 I31.48 J-19.703 E.0384
G3 X102.127 Y99.634 I35.605 J20.25 E.03714
G3 X103.118 Y102.209 I-54.013 J22.258 E.08193
G3 X103.34 Y102.705 I-7.621 J3.72 E.01614
G2 X102.883 Y103.785 I20.589 J9.364 E.03484
G3 X102.727 Y103.918 I-.296 J-.189 E.00616
G2 X101.88 Y104.279 I.25 J1.762 E.02766
G2 X101.655 Y105.476 I.843 J.778 E.03811
G2 X103.071 Y106.314 I1.184 J-.386 E.05336
G2 X104.675 Y105.359 I-.251 J-2.246 E.05713
G2 X105.102 Y104.487 I-4.73 J-2.859 E.02886
G2 X106.731 Y99.964 I-107.357 J-41.2 E.14274
G1 X106.829 Y99.728 E.00759
G2 X107.159 Y99.985 I.563 J-.383 E.01262
G2 X107.882 Y100.141 I.75 J-1.72 E.02212
G1 X107.582 Y100.491 E.01369
G1 X106.89 Y101.43 E.03463
G2 X106.544 Y102.932 I1.381 J1.109 E.04737
G2 X107.841 Y103.807 I1.144 J-.297 E.05074
G3 X108.909 Y103.789 I.65 J6.871 E.03174
G1 X109.301 Y103.779 E.01167
G1 X109.355 Y103.922 E.00454
G3 X99.188 Y107.365 I-9.335 J-10.83 E.32671
G1 X75.825 Y105.946 E.69495
G3 X74.835 Y104.867 I.029 J-1.02 E.04849
G1 X74.834 Y102.474 E.07105
G1 X74.979 Y102.424 E.00454
G2 X78.077 Y103.735 I2.603 J-1.836 E.10521
G2 X79.957 Y102.464 I-.193 J-2.312 E.07041
G2 X79.581 Y101.079 I-.947 J-.486 E.04675
G2 X77.889 Y101.245 I-.755 J1.017 E.05536
G1 X77.837 Y101.316 E.00261
G3 X76.971 Y101.048 I-.255 J-.707 E.0289
G3 X76.769 Y99.926 I2.24 J-.984 E.03416
G3 X76.988 Y98.857 I2.14 J-.118 E.03276
G1 X77.058 Y98.768 E.00338
G3 X77.624 Y98.591 I.453 J.454 E.0183
G2 X78.438 Y99.029 I2.668 J-3.979 E.02749
G2 X79.963 Y98.355 I.421 J-1.111 E.05489
G2 X81.138 Y98.733 I.923 J-.854 E.03831
G3 X81.606 Y98.673 I.819 J4.542 E.014
G2 X81.584 Y99.707 I6.485 J.652 E.03075
G2 X81.59 Y102.001 I120.527 J.836 E.06812
G2 X81.629 Y102.945 I2.063 J.387 E.02828
G2 X82.551 Y103.607 I1.039 J-.474 E.03525
G2 X83.917 Y102.627 I.195 J-1.17 E.05549
G2 X83.939 Y101.825 I-3.11 J-.488 E.02388
G1 X83.94 Y99.941 E.05595
G1 E-2.8 F3600
;WIPE_START
G1 F3000
G1 X83.941 Y98.941 E-1.2
;WIPE_END
G1 Z.6 F30000
G1 X87.11 Y100.821 Z.6
G1 Z.2
G1 E4 F2400
G1 F3000
G1 X87.456 Y100.879 E.01043
G3 X87.937 Y101.34 I-.097 J.582 E.02103
G1 X87.809 Y101.429 E.00461
G2 X87.063 Y101.015 I-1.404 J1.654 E.02549
G1 X87.1 Y100.86 E.00474
G1 E-2.8 F3600
;WIPE_START
G1 F3000
G1 X87.456 Y100.879 E-.42746
G1 X87.606 Y100.925 E-.18884
G1 X87.771 Y101.037 E-.23893
G1 X87.879 Y101.175 E-.20931
G1 X87.916 Y101.281 E-.13547
;WIPE_END
G1 Z.6 F30000
G1 X81.884 Y98.387 Z.6
G1 Z.2
G1 E4 F2400
;TYPE:Outer wall
G1 F3000
G2 X81.556 Y98.319 I-.24 J.33 E.01027
G3 X80.814 Y98.393 I-1.456 J-10.763 E.02212
G3 X80.059 Y97.696 I.035 J-.796 E.03319
G3 X80.738 Y96.672 I.835 J-.183 E.04071
G3 X81.385 Y96.702 I.2 J2.678 E.01926
G2 X84.81 Y96.696 I.651 J-613.185 E.10171
G3 X85.506 Y97.515 I-.045 J.743 E.03564
G3 X84.839 Y98.318 I-.78 J.031 E.03393
G3 X83.582 Y98.338 I-.726 J-6.151 E.0374
G3 X83.582 Y101.837 I-454.214 J1.795 E.10389
G3 X83.511 Y102.741 I-1.913 J.303 E.02719
G3 X82.414 Y103.211 I-.783 J-.313 E.03935
G3 X81.911 Y102.407 I.208 J-.689 E.03074
G2 X81.938 Y101.441 I-4.95 J-.625 E.02874
G3 X81.938 Y99.008 I354.237 J-1.281 E.07222
G2 X81.952 Y98.45 I-1.634 J-.32 E.01668
G2 X81.915 Y98.412 I-.308 J.268 E.00155
G1 E-2.8 F3600
;WIPE_START
G1 F3000
G1 X81.826 Y98.345 E-.13448
G1 X81.68 Y98.318 E-.17827
G1 X81.556 Y98.319 E-.14908
G1 X80.986 Y98.39 E-.68918
G1 X80.945 Y98.39 E-.049
;WIPE_END
G1 Z.6 F30000
G1 X77.479 Y98.231 Z.6
G1 Z.2
G1 E4 F2400
G1 F3000
G2 X76.507 Y99.092 I.05 J1.036 E.04168
G2 X76.585 Y101.072 I3.459 J.855 E.05961
G2 X77.913 Y101.665 I.984 J-.418 E.04752
G2 X78.167 Y101.47 I-.09 J-.379 E.00981
G3 X79.375 Y101.372 I.659 J.626 E.03941
G3 X79.633 Y102.314 I-.387 J.612 E.03184
G3 X78.036 Y103.38 I-1.748 J-.89 E.05957
G3 X75.472 Y102.475 I-.452 J-2.805 E.08418
G3 X74.786 Y100.522 I2.337 J-1.918 E.06273
G3 X74.848 Y98.777 I9.851 J-.52 E.0519
G3 X77.462 Y96.525 I2.668 J.453 E.11107
G3 X79.364 Y97.184 I.212 J2.466 E.06156
G3 X79.123 Y98.711 I-.582 J.691 E.0551
G3 X78.454 Y98.651 I-.256 J-.914 E.0204
G2 X77.735 Y98.25 I-29.512 J52.057 E.02444
G2 X77.519 Y98.23 I-.206 J1.017 E.00645
G1 E-2.8 F3600
;WIPE_START
G1 F3000
G1 X77.291 Y98.247 E-.27423
G1 X77.05 Y98.337 E-.30897
G1 X76.939 Y98.403 E-.15503
G1 X76.801 Y98.519 E-.21597
G1 X76.689 Y98.661 E-.21678
G1 X76.678 Y98.682 E-.02902
;WIPE_END
G1 Z.6 F30000
G1 X112.736 Y99.758 Z.6
G1 Z.2
G1 E4 F2400
G1 F3000
G3 X112.635 Y100.488 I-.931 J.243 E.02247
G3 X111.379 Y102.375 I-19.27 J-11.471 E.06731
G2 X111.034 Y102.963 I9.31 J5.85 E.02027
G3 X110.516 Y103.518 I-10.898 J-9.668 E.02252
G2 X108.961 Y104.7 I11.601 J16.87 E.05804
G3 X99.168 Y107.722 I-8.932 J-11.569 E.31089
G1 X75.797 Y106.302 E.69519
G3 X74.478 Y104.873 I.058 J-1.376 E.06409
G2 X74.47 Y101.462 I-129.58 J-1.398 E.10126
G3 X74.468 Y98.55 I21.471 J-1.471 E.08655
G2 X74.48 Y95.059 I-732.962 J-4.289 E.10365
